Numix-Circle/48x48/apps/gensgs.svg

<svg xmlns="http://www.w3.org/2000/svg" height="48" width="48" viewBox="0 0 13.546667 13.546667">
 <defs>
  <linearGradient id="0" gradientUnits="userSpaceOnUse" x2="0" gradientTransform="matrix(1.10525,0,0,1.10525,-134.27874,-295.76183)" y1="279.1" y2="268.33">
   <stop stop-color="#3b5892"/>
   <stop stop-color="#458de1" offset="1"/>
  </linearGradient>
 </defs>
 <rect opacity="0.5" fill-rule="evenodd" rx="6.491" height="12.982" width="12.982" y="0.283" x="0.282" fill="#fff"/>
 <rect fill-rule="evenodd" rx="5.927" height="11.853" width="11.853" y="0.847" x="0.847" fill="url(#0)"/>
 <g transform="matrix(0.0301037,0,0,0.03118008,2.2577778,5.0800001)">
  <path d="M 34.4375 18 C 33.28198 18 32.30273 18.701792 31.90625 19.6875 L 30.90625 22.75 L 30.90625 18.15625 L 26.03125 18.15625 C 25.14997 18.15625 24.364717 18.504557 23.78125 19.09375 L 23.78125 18.15625 L 18.78125 18.15625 C 17.851437 18.15625 16.997717 18.573322 16.40625 19.21875 L 16.40625 18.15625 L 11.71875 18.15625 C 9.6876036 18.154482 8.0024533 19.794492 8 21.96875 C 8 22.975339 8.4361534 23.886138 9.0625 24.5625 L 8 24.5625 L 8 29 L 12.75 29 C 14.081946 28.998343 15.384977 28.153558 15.84375 27.15625 L 15.875 27.125 C 16.405027 28.233783 17.501037 29 18.78125 29 L 23.78125 29 L 23.78125 28.03125 C 24.36877 28.622211 25.147623 29 26.03125 29 L 40 29 L 37 19.6875 C 36.58816 18.697704 35.597926 18 34.4375 18 z M 34.125 18.78125 C 34.232831 18.763898 34.32442 18.78125 34.4375 18.78125 C 35.340753 18.78125 36.112283 19.335506 36.34375 20.125 L 38.96875 28.21875 L 33.90625 28.21875 L 33.90625 26.9375 L 37.25 26.9375 L 35.09375 20.34375 C 34.987723 20.084783 34.727207 19.90625 34.4375 19.90625 C 34.146193 19.90625 33.917567 20.114376 33.8125 20.375 L 31.21875 28.21875 L 30.1875 28.21875 L 29.875 28.21875 L 26.03125 28.21875 C 24.64341 28.21875 23.53125 27.058375 23.53125 25.625 L 23.53125 21.5 C 23.53125 20.066735 24.643304 18.90625 26.03125 18.90625 L 30.1875 18.90625 L 30.1875 20.21875 L 26.03125 20.21875 C 25.33941 20.21875 24.78125 20.782539 24.78125 21.5 L 24.78125 25.625 C 24.78125 26.341798 25.371407 26.9375 26.0625 26.9375 L 28.90625 26.9375 L 28.90625 23.40625 L 26.625 23.40625 L 26.625 22.125 L 30.1875 22.125 L 30.1875 27.28125 L 32.5625 20.125 C 32.766527 19.434772 33.370183 18.902717 34.125 18.78125 z M 11.6875 18.90625 L 15.6875 18.90625 L 15.6875 20.21875 L 11.6875 20.21875 C 10.752033 20.21875 10 21.00326 10 21.96875 C 10 22.936891 10.752033 23.71875 11.6875 23.71875 L 12.71875 23.71875 C 13.49315 23.71875 14.125 24.388725 14.125 25.1875 C 14.125 25.987159 13.49315 26.625 12.71875 26.625 L 8.71875 26.625 L 8.71875 25.34375 L 12.71875 25.34375 C 12.797257 25.34375 12.875 25.269698 12.875 25.1875 C 12.875 25.103756 12.797257 25.03125 12.71875 25.03125 L 11.6875 25.03125 C 10.053687 25.03125 8.71875 23.656783 8.71875 21.96875 C 8.71875 20.280717 10.053687 18.90625 11.6875 18.90625 z M 18.78125 18.90625 L 23.0625 18.90625 L 23.0625 20.21875 L 18.78125 20.21875 C 18.087703 20.21875 17.53125 20.796791 17.53125 21.5 L 17.53125 25.625 C 17.53125 26.35594 18.087703 26.9375 18.78125 26.9375 L 23.03125 26.9375 L 23.03125 28.21875 L 18.78125 28.21875 C 17.392664 28.21875 16.28125 27.058375 16.28125 25.625 L 16.28125 21.5 C 16.28125 20.066735 17.392664 18.90625 18.78125 18.90625 z M 34.4375 20.21875 C 34.616487 20.21875 34.789563 20.334942 34.84375 20.5 L 36.84375 26.625 L 33.90625 26.625 L 33.90625 25.46875 L 33 28.21875 L 31.53125 28.21875 L 34.0625 20.5 C 34.11818 20.334942 34.25862 20.21875 34.4375 20.21875 z M 11.6875 20.53125 L 15.6875 20.53125 L 15.6875 21.8125 L 11.6875 21.8125 C 11.605687 21.8125 11.53125 21.883238 11.53125 21.96875 C 11.53125 22.054262 11.605687 22.125 11.6875 22.125 L 12.71875 22.125 C 14.35427 22.125 15.6875 23.49781 15.6875 25.1875 C 15.6875 26.873876 14.35427 28.25 12.71875 28.25 L 8.71875 28.25 L 8.71875 26.9375 L 12.71875 26.9375 C 13.655923 26.9375 14.4375 26.153874 14.4375 25.1875 C 14.4375 24.221789 13.655817 23.4375 12.71875 23.4375 L 11.6875 23.40625 C 10.915447 23.40625 10.28125 22.767525 10.28125 21.96875 C 10.28125 21.170749 10.915553 20.53125 11.6875 20.53125 z M 18.78125 20.53125 L 23.0625 20.53125 L 23.0625 21.8125 L 19.375 21.8125 C 19.080493 21.8125 19.09375 22.125 19.09375 22.125 L 22.15625 22.125 L 22.15625 23.40625 L 17.84375 23.40625 L 17.84375 21.5 C 17.84375 20.951906 18.251223 20.53125 18.78125 20.53125 z M 26.03125 20.53125 L 30.1875 20.53125 L 30.1875 21.8125 L 26.625 21.8125 C 26.327933 21.820013 26.34375 22.125 26.34375 22.125 L 26.34375 25.03125 C 26.34375 25.198076 26.463933 25.34375 26.625 25.34375 L 27.375 25.34375 L 27.375 25.03125 L 26.625 25.03125 L 26.625 23.71875 L 28.625 23.71875 L 28.625 26.625 L 26.03125 26.625 C 25.502077 26.625 25.09375 26.174199 25.09375 25.625 L 25.09375 21.5 C 25.09375 20.951906 25.502077 20.53125 26.03125 20.53125 z M 17.84375 23.71875 L 22.15625 23.71875 L 22.15625 25.03125 L 19.09375 25.03125 C 19.097803 25.336287 19.375 25.34375 19.375 25.34375 L 23.03125 25.34375 L 23.03125 26.625 L 18.78125 26.625 C 18.252823 26.625 17.84375 26.171548 17.84375 25.625 L 17.84375 23.71875 z M 34.4375 23.84375 L 34 25.1875 L 34.875 25.1875 L 34.4375 23.84375 z " transform="matrix(9.3750014,0,0,9.0513632,-75.00001,-162.92454)" fill="#ffffff"/>
  <path d="m 281.504,17.638999 c 2.216,0 4.302,-0.865 5.865,-2.42 1.562,-1.57 2.435,-3.641 2.435,-5.8560002 0,-2.2 -0.873,-4.264 -2.435,-5.834 -1.563,-1.547 -3.649,-2.412 -5.865,-2.412 -4.559,0 -8.284,3.695 -8.284,8.247 0,2.2150002 0.865,4.2860002 2.442,5.8560002 1.556,1.554 3.634,2.419 5.842,2.419 m -7.115,-8.2770002 c 0,-1.889 0.728,-3.679 2.085,-5.022 1.351,-1.343 3.141,-2.071 5.03,-2.071 1.912,0 3.702,0.729 5.053,2.071 1.343,1.343 2.087,3.133 2.087,5.022 0,3.9220002 -3.202,7.1080002 -7.14,7.1080002 -1.89,0 -3.68,-0.736 -5.03,-2.079 -1.358,-1.342 -2.085,-3.125 -2.085,-5.0290002 z" fill="#4070b6"/>
  <path d="m 279.38,10.059999 v 3.899 h -1.199 V 4.7949988 h 3.406 c 1.283,0.015 2.034,0.015 2.747,0.553 0.69,0.509 0.979,1.275 0.979,2.125 0,2.14 -1.744,2.42 -2.186,2.511 l 2.58,3.9750002 h -1.449 l -2.511,-3.899 h -2.367 m 0,-1.0090002 h 2.435 c 0.388,0 0.752,0 1.116,-0.091 0.85,-0.205 1.153,-0.812 1.153,-1.479 0,-0.243 -0.023,-0.857 -0.547,-1.282 -0.479,-0.402 -1.085,-0.387 -1.79,-0.387 h -2.367 v 3.239 z" fill="#4070b6"/>
 </g>
</svg>

<svg viewBox="0 0 48 48"><defs><linearGradient id="1" gradientUnits="userSpaceOnUse" y1="15" x2="0" y2="11" gradientTransform="matrix(15.333333,0,0,11.5,414.99999,-125.5)"><stop/><stop offset="1" stop-opacity="0"/></linearGradient><clipPath id="clipPath-774212095"><g transform="translate(0,-1004.3622)"><path d="m -24 13 c 0 1.105 -0.672 2 -1.5 2 -0.828 0 -1.5 -0.895 -1.5 -2 0 -1.105 0.672 -2 1.5 -2 0.828 0 1.5 0.895 1.5 2 z" transform="matrix(15.333333,0,0,11.5,414.99999,878.8622)" fill="#1890d0"/></g></clipPath><clipPath id="clipPath-780643853"><g transform="translate(0,-1004.3622)"><path d="m -24 13 c 0 1.105 -0.672 2 -1.5 2 -0.828 0 -1.5 -0.895 -1.5 -2 0 -1.105 0.672 -2 1.5 -2 0.828 0 1.5 0.895 1.5 2 z" transform="matrix(15.333333,0,0,11.5,414.99999,878.8622)" fill="#1890d0"/></g></clipPath></defs><g><g transform="translate(0,-1004.3622)"><path d="m 25 1006.36 c -12.703 0 -23 10.298 -23 23 0 6.367 2.601 12.12 6.781 16.281 4.085 3.712 9.514 5.969 15.469 5.969 12.703 0 23 -10.297 23 -23 0 -5.954 -2.256 -11.384 -5.969 -15.469 -4.165 -4.181 -9.914 -6.781 -16.281 -6.781 z m 16.281 6.781 c 3.854 4.113 6.219 9.637 6.219 15.719 0 12.703 -10.297 23 -23 23 -6.081 0 -11.606 -2.364 -15.719 -6.219 4.16 4.144 9.883 6.719 16.219 6.719 12.703 0 23 -10.297 23 -23 0 -6.335 -2.575 -12.06 -6.719 -16.219 z" opacity="0.05"/><path d="m 41.28 1013.14 c 3.712 4.085 5.969 9.514 5.969 15.469 0 12.703 -10.297 23 -23 23 -5.954 0 -11.384 -2.256 -15.469 -5.969 4.113 3.854 9.637 6.219 15.719 6.219 12.703 0 23 -10.297 23 -23 0 -6.081 -2.364 -11.606 -6.219 -15.719 z" opacity="0.1"/><path transform="matrix(15.333333,0,0,11.5,415.24999,879.11222)" d="m -24 13 a 1.5 2 0 1 1 -3 0 1.5 2 0 1 1 3 0 z" opacity="0.2"/></g></g><g><g transform="translate(0,-1004.3622)"><path d="m -24 13 c 0 1.105 -0.672 2 -1.5 2 -0.828 0 -1.5 -0.895 -1.5 -2 0 -1.105 0.672 -2 1.5 -2 0.828 0 1.5 0.895 1.5 2 z" transform="matrix(15.333333,0,0,11.5,414.99999,878.8622)" fill="#4488d9"/></g></g><g><path d="m 47 24 c 0 12.703 -10.297 23 -23 23 -12.703 0 -23 -10.297 -23 -23 0 -12.703 10.297 -23 23 -23 12.703 0 23 10.297 23 23 z" opacity="0.15" fill="url(#1)"/></g><g><g clip-path="url(#clipPath-774212095)"><g transform="translate(0,1)"><g opacity="0.1"><!-- color: #4488d9 --><g><path d="m 34.438 18 c -1.156 0 -2.133 0.703 -2.531 1.688 l -1 3.063 l 0 -4.594 l -4.875 0 c -0.879 0 -1.668 0.348 -2.25 0.938 l 0 -0.938 l -5 0 c -0.93 0 -1.785 0.418 -2.375 1.063 l 0 -1.063 l -4.688 0 c -2.031 0 -3.715 1.641 -3.719 3.813 c 0 1.012 0.438 1.918 1.063 2.594 l -1.063 0 l 0 4.441 l 4.75 0 c 1.332 -0.004 2.637 -0.848 3.094 -1.848 l 0.031 -0.027 c 0.531 1.105 1.625 1.875 2.906 1.875 l 5 0 l 0 -0.973 c 0.586 0.594 1.367 0.973 2.25 0.973 l 13.969 0 l -3 -9.316 c -0.41 -0.988 -1.402 -1.688 -2.563 -1.688 m -0.313 0.781 c 0.109 -0.016 0.199 0 0.313 0 c 0.902 0 1.676 0.555 1.906 1.344 l 2.625 8.094 l -5.063 0 l 0 -1.281 l 3.344 0 l -2.156 -6.594 c -0.105 -0.258 -0.367 -0.438 -0.656 -0.438 c -0.289 0 -0.52 0.207 -0.625 0.469 l -2.594 7.844 l -5.188 0 c -1.387 0 -2.5 -1.16 -2.5 -2.594 l 0 -4.125 c 0 -1.434 1.113 -2.594 2.5 -2.594 l 4.156 0 l 0 1.313 l -4.156 0 c -0.691 0 -1.25 0.563 -1.25 1.281 l 0 4.125 c 0 0.719 0.59 1.313 1.281 1.313 l 2.844 0 l 0 -3.531 l -2.281 0 l 0 -1.281 l 3.563 0 l 0 5.156 l 2.375 -7.156 c 0.203 -0.688 0.809 -1.223 1.563 -1.344 m -22.438 0.125 l 4 0 l 0 1.313 l -4 0 c -0.934 0 -1.688 0.785 -1.688 1.75 c 0 0.969 0.75 1.75 1.688 1.75 l 1.031 0 c 0.773 0 1.406 0.672 1.406 1.469 c 0 0.801 -0.633 1.438 -1.406 1.438 l -4 0 l 0 -1.281 l 4 0 c 0.078 0 0.156 -0.074 0.156 -0.156 c 0 -0.082 -0.078 -0.156 -0.156 -0.156 l -1.031 0 c -1.633 0 -2.969 -1.371 -2.969 -3.063 c 0 -1.688 1.336 -3.063 2.969 -3.063 m 7.094 0 l 4.281 0 l 0 1.313 l -4.281 0 c -0.695 0 -1.25 0.578 -1.25 1.281 l 0 4.125 c 0 0.73 0.555 1.313 1.25 1.313 l 4.25 0 l 0 1.281 l -4.25 0 c -1.391 0 -2.5 -1.16 -2.5 -2.594 l 0 -4.125 c 0 -1.434 1.109 -2.594 2.5 -2.594 m 15.656 1.313 c 0.18 0 0.352 0.117 0.406 0.281 l 2 6.125 l -2.938 0 l 0 -1.156 l -0.906 2.75 l -1.469 0 l 2.531 -7.719 c 0.055 -0.164 0.195 -0.281 0.375 -0.281 m -22.75 0.313 l 4 0 l 0 1.281 l -4 0 c -0.082 0 -0.156 0.07 -0.156 0.156 c 0 0.086 0.074 0.156 0.156 0.156 l 1.031 0 c 1.637 0 2.969 1.371 2.969 3.063 c 0 1.688 -1.332 3.063 -2.969 3.063 l -4 0 l 0 -1.313 l 4 0 c 0.938 0 1.719 -0.785 1.719 -1.75 c 0 -0.965 -0.781 -1.75 -1.719 -1.75 l -1.031 -0.031 c -0.773 0 -1.406 -0.637 -1.406 -1.438 c 0 -0.797 0.633 -1.438 1.406 -1.438 m 7.094 0 l 4.281 0 l 0 1.281 l -3.688 0 c -0.297 0 -0.281 0.313 -0.281 0.313 l 3.063 0 l 0 1.281 l -4.313 0 l 0 -1.906 c 0 -0.547 0.406 -0.969 0.938 -0.969 m 7.25 0 l 4.156 0 l 0 1.281 l -3.563 0 c -0.297 0.008 -0.281 0.313 -0.281 0.313 l 0 2.906 c 0 0.168 0.121 0.313 0.281 0.313 l 0.75 0 l 0 -0.313 l -0.75 0 l 0 -1.313 l 2 0 l 0 2.906 l -2.594 0 c -0.531 0 -0.938 -0.449 -0.938 -1 l 0 -4.125 c 0 -0.547 0.406 -0.969 0.938 -0.969 m -8.188 3.188 l 4.313 0 l 0 1.313 l -3.063 0 c 0.004 0.309 0.281 0.316 0.281 0.316 l 3.656 0 l 0 1.281 l -4.25 0 c -0.527 0 -0.938 -0.453 -0.938 -1 m 16.594 -1.785 l -0.438 1.344 l 0.875 0 m -0.438 -1.344" fill="#000" stroke="none" fill-rule="nonzero" fill-opacity="1"/><path d="m 38.03 19.949 c 0.234 0 0.457 -0.098 0.625 -0.27 c 0.168 -0.172 0.258 -0.402 0.258 -0.645 c 0 -0.242 -0.09 -0.473 -0.258 -0.645 c -0.168 -0.172 -0.391 -0.266 -0.625 -0.266 c -0.488 0 -0.883 0.406 -0.883 0.91 c 0 0.242 0.09 0.473 0.258 0.645 c 0.168 0.172 0.391 0.27 0.625 0.27 m -0.758 -0.914 c 0 -0.211 0.074 -0.406 0.219 -0.555 c 0.145 -0.148 0.336 -0.23 0.539 -0.23 c 0.203 0 0.395 0.082 0.539 0.23 c 0.141 0.148 0.223 0.344 0.223 0.555 c 0 0.434 -0.344 0.785 -0.762 0.785 c -0.203 0 -0.395 -0.082 -0.539 -0.23 c -0.145 -0.148 -0.223 -0.344 -0.223 -0.555 m 0.004 0" fill="#000" stroke="none" fill-rule="nonzero" fill-opacity="1"/><path d="m 37.801 19.11 l 0 0.43 l -0.129 0 l 0 -1.012 l 0.363 0 c 0.137 0 0.219 0 0.293 0.059 c 0.074 0.059 0.105 0.141 0.105 0.234 c 0 0.238 -0.188 0.27 -0.234 0.277 l 0.277 0.441 l -0.156 0 l -0.266 -0.43 l -0.254 0 m 0 -0.113 l 0.258 0 c 0.043 0 0.082 0 0.121 -0.012 c 0.09 -0.02 0.121 -0.09 0.121 -0.16 c 0 -0.027 0 -0.098 -0.059 -0.145 c -0.051 -0.043 -0.113 -0.043 -0.188 -0.043 l -0.254 0 m 0 0.359" fill="#000" stroke="none" fill-rule="nonzero" fill-opacity="1"/></g></g></g></g></g><g><g clip-path="url(#clipPath-780643853)"><!-- color: #4488d9 --><g><path d="m 34.438 18 c -1.156 0 -2.133 0.703 -2.531 1.688 l -1 3.063 l 0 -4.594 l -4.875 0 c -0.879 0 -1.668 0.348 -2.25 0.938 l 0 -0.938 l -5 0 c -0.93 0 -1.785 0.418 -2.375 1.063 l 0 -1.063 l -4.688 0 c -2.031 0 -3.715 1.641 -3.719 3.813 c 0 1.012 0.438 1.918 1.063 2.594 l -1.063 0 l 0 4.441 l 4.75 0 c 1.332 -0.004 2.637 -0.848 3.094 -1.848 l 0.031 -0.027 c 0.531 1.105 1.625 1.875 2.906 1.875 l 5 0 l 0 -0.973 c 0.586 0.594 1.367 0.973 2.25 0.973 l 13.969 0 l -3 -9.316 c -0.41 -0.988 -1.402 -1.688 -2.563 -1.688 m -0.313 0.781 c 0.109 -0.016 0.199 0 0.313 0 c 0.902 0 1.676 0.555 1.906 1.344 l 2.625 8.094 l -5.063 0 l 0 -1.281 l 3.344 0 l -2.156 -6.594 c -0.105 -0.258 -0.367 -0.438 -0.656 -0.438 c -0.289 0 -0.52 0.207 -0.625 0.469 l -2.594 7.844 l -5.188 0 c -1.387 0 -2.5 -1.16 -2.5 -2.594 l 0 -4.125 c 0 -1.434 1.113 -2.594 2.5 -2.594 l 4.156 0 l 0 1.313 l -4.156 0 c -0.691 0 -1.25 0.563 -1.25 1.281 l 0 4.125 c 0 0.719 0.59 1.313 1.281 1.313 l 2.844 0 l 0 -3.531 l -2.281 0 l 0 -1.281 l 3.563 0 l 0 5.156 l 2.375 -7.156 c 0.203 -0.688 0.809 -1.223 1.563 -1.344 m -22.438 0.125 l 4 0 l 0 1.313 l -4 0 c -0.934 0 -1.688 0.785 -1.688 1.75 c 0 0.969 0.75 1.75 1.688 1.75 l 1.031 0 c 0.773 0 1.406 0.672 1.406 1.469 c 0 0.801 -0.633 1.438 -1.406 1.438 l -4 0 l 0 -1.281 l 4 0 c 0.078 0 0.156 -0.074 0.156 -0.156 c 0 -0.082 -0.078 -0.156 -0.156 -0.156 l -1.031 0 c -1.633 0 -2.969 -1.371 -2.969 -3.063 c 0 -1.688 1.336 -3.063 2.969 -3.063 m 7.094 0 l 4.281 0 l 0 1.313 l -4.281 0 c -0.695 0 -1.25 0.578 -1.25 1.281 l 0 4.125 c 0 0.73 0.555 1.313 1.25 1.313 l 4.25 0 l 0 1.281 l -4.25 0 c -1.391 0 -2.5 -1.16 -2.5 -2.594 l 0 -4.125 c 0 -1.434 1.109 -2.594 2.5 -2.594 m 15.656 1.313 c 0.18 0 0.352 0.117 0.406 0.281 l 2 6.125 l -2.938 0 l 0 -1.156 l -0.906 2.75 l -1.469 0 l 2.531 -7.719 c 0.055 -0.164 0.195 -0.281 0.375 -0.281 m -22.75 0.313 l 4 0 l 0 1.281 l -4 0 c -0.082 0 -0.156 0.07 -0.156 0.156 c 0 0.086 0.074 0.156 0.156 0.156 l 1.031 0 c 1.637 0 2.969 1.371 2.969 3.063 c 0 1.688 -1.332 3.063 -2.969 3.063 l -4 0 l 0 -1.313 l 4 0 c 0.938 0 1.719 -0.785 1.719 -1.75 c 0 -0.965 -0.781 -1.75 -1.719 -1.75 l -1.031 -0.031 c -0.773 0 -1.406 -0.637 -1.406 -1.438 c 0 -0.797 0.633 -1.438 1.406 -1.438 m 7.094 0 l 4.281 0 l 0 1.281 l -3.688 0 c -0.297 0 -0.281 0.313 -0.281 0.313 l 3.063 0 l 0 1.281 l -4.313 0 l 0 -1.906 c 0 -0.547 0.406 -0.969 0.938 -0.969 m 7.25 0 l 4.156 0 l 0 1.281 l -3.563 0 c -0.297 0.008 -0.281 0.313 -0.281 0.313 l 0 2.906 c 0 0.168 0.121 0.313 0.281 0.313 l 0.75 0 l 0 -0.313 l -0.75 0 l 0 -1.313 l 2 0 l 0 2.906 l -2.594 0 c -0.531 0 -0.938 -0.449 -0.938 -1 l 0 -4.125 c 0 -0.547 0.406 -0.969 0.938 -0.969 m -8.188 3.188 l 4.313 0 l 0 1.313 l -3.063 0 c 0.004 0.309 0.281 0.316 0.281 0.316 l 3.656 0 l 0 1.281 l -4.25 0 c -0.527 0 -0.938 -0.453 -0.938 -1 m 16.594 -1.785 l -0.438 1.344 l 0.875 0 m -0.438 -1.344" fill="#fff" stroke="none" fill-rule="nonzero" fill-opacity="1"/><path d="m 38.03 19.949 c 0.234 0 0.457 -0.098 0.625 -0.27 c 0.168 -0.172 0.258 -0.402 0.258 -0.645 c 0 -0.242 -0.09 -0.473 -0.258 -0.645 c -0.168 -0.172 -0.391 -0.266 -0.625 -0.266 c -0.488 0 -0.883 0.406 -0.883 0.91 c 0 0.242 0.09 0.473 0.258 0.645 c 0.168 0.172 0.391 0.27 0.625 0.27 m -0.758 -0.914 c 0 -0.211 0.074 -0.406 0.219 -0.555 c 0.145 -0.148 0.336 -0.23 0.539 -0.23 c 0.203 0 0.395 0.082 0.539 0.23 c 0.141 0.148 0.223 0.344 0.223 0.555 c 0 0.434 -0.344 0.785 -0.762 0.785 c -0.203 0 -0.395 -0.082 -0.539 -0.23 c -0.145 -0.148 -0.223 -0.344 -0.223 -0.555 m 0.004 0" fill="#3f70b5" stroke="none" fill-rule="nonzero" fill-opacity="1"/><path d="m 37.801 19.11 l 0 0.43 l -0.129 0 l 0 -1.012 l 0.363 0 c 0.137 0 0.219 0 0.293 0.059 c 0.074 0.059 0.105 0.141 0.105 0.234 c 0 0.238 -0.188 0.27 -0.234 0.277 l 0.277 0.441 l -0.156 0 l -0.266 -0.43 l -0.254 0 m 0 -0.113 l 0.258 0 c 0.043 0 0.082 0 0.121 -0.012 c 0.09 -0.02 0.121 -0.09 0.121 -0.16 c 0 -0.027 0 -0.098 -0.059 -0.145 c -0.051 -0.043 -0.113 -0.043 -0.188 -0.043 l -0.254 0 m 0 0.359" fill="#3f70b5" stroke="none" fill-rule="nonzero" fill-opacity="1"/></g></g></g><g><path d="m 40.03 7.531 c 3.712 4.084 5.969 9.514 5.969 15.469 0 12.703 -10.297 23 -23 23 c -5.954 0 -11.384 -2.256 -15.469 -5.969 4.178 4.291 10.01 6.969 16.469 6.969 c 12.703 0 23 -10.298 23 -23 0 -6.462 -2.677 -12.291 -6.969 -16.469 z" opacity="0.1"/></g></svg>
